src/assets/instagram.svg

<svg fill="none" height="24" viewBox="0 0 24 24" width="24" xmlns="http://www.w3.org/2000/svg"><path d="m7.99834 2.3999c-3.0872 0-5.59844 2.51357-5.59844 5.60156v8.00004c0 3.0872 2.51357 5.5984 5.60156 5.5984h8.00004c3.0872 0 5.5984-2.5136 5.5984-5.6016v-7.99996c0-3.0872-2.5136-5.59844-5.6016-5.59844zm9.60156 3.2c.4416 0 .8.3584.8.8s-.3584.8-.8.8-.8-.3584-.8-.8.3584-.8.8-.8zm-5.6 1.6c2.6472 0 4.8 2.1528 4.8 4.8s-2.1528 4.8-4.8 4.8-4.8-2.1528-4.8-4.8 2.1528-4.8 4.8-4.8zm0 1.6c-.8487 0-1.6626.33714-2.26274.93726-.60012.60014-.93726 1.41404-.93726 2.26274s.33714 1.6626.93726 2.2627c.60014.6002 1.41404.9373 2.26274.9373s1.6626-.3371 2.2627-.9373c.6002-.6001.9373-1.414.9373-2.2627s-.3371-1.6626-.9373-2.26274c-.6001-.60012-1.414-.93726-2.2627-.93726z" fill="#737373"/></svg>

<svg width="24" height="24" viewBox="0 0 24 24" fill="none" xmlns="http://www.w3.org/2000/svg">
<path d="M7.99834 2.3999C4.91114 2.3999 2.3999 4.91347 2.3999 8.00146V16.0015C2.3999 19.0887 4.91347 21.5999 8.00146 21.5999H16.0015C19.0887 21.5999 21.5999 19.0863 21.5999 15.9983V7.99834C21.5999 4.91114 19.0863 2.3999 15.9983 2.3999H7.99834ZM17.5999 5.5999C18.0415 5.5999 18.3999 5.9583 18.3999 6.3999C18.3999 6.8415 18.0415 7.1999 17.5999 7.1999C17.1583 7.1999 16.7999 6.8415 16.7999 6.3999C16.7999 5.9583 17.1583 5.5999 17.5999 5.5999ZM11.9999 7.1999C14.6471 7.1999 16.7999 9.3527 16.7999 11.9999C16.7999 14.6471 14.6471 16.7999 11.9999 16.7999C9.3527 16.7999 7.1999 14.6471 7.1999 11.9999C7.1999 9.3527 9.3527 7.1999 11.9999 7.1999ZM11.9999 8.7999C11.1512 8.7999 10.3373 9.13704 9.73716 9.73716C9.13704 10.3373 8.7999 11.1512 8.7999 11.9999C8.7999 12.8486 9.13704 13.6625 9.73716 14.2626C10.3373 14.8628 11.1512 15.1999 11.9999 15.1999C12.8486 15.1999 13.6625 14.8628 14.2626 14.2626C14.8628 13.6625 15.1999 12.8486 15.1999 11.9999C15.1999 11.1512 14.8628 10.3373 14.2626 9.73716C13.6625 9.13704 12.8486 8.7999 11.9999 8.7999Z" fill="#737373"/>
</svg>
